X:1
T:Etude 4, Op 176
T:Jean-Baptiste Duvernoy c. 1802 – c. 1880 
%%score { 1 | 2 }
L:1/8
Q:1/4=100
M:4/4
K:C
V:1 treble nm="Piano"
V:2 bass 
V:1
"^Moderato"!p!!<(! (Ac'gc') (ec'g!<)!c') |!mp!!>(! (dbgb) (dbg!>)!b) |!p!!<(! (caea) (cae!<)!a) | %3
!mp!!>(! (Bgeg) (Bge!>)!g) |!p!!<(! (Afcf) (Afc!<)!f) |!mp!!>(! (Gece) (Gec!>)!e) | %6
!p! (FdAd) (DBGB) | (EcGc E2) z2 |!p!!<(! (G4!<)! d4 |!mp!!>(! e4!>)! c4) |!p! (B4!<(! c4!<)! | %11
!mp!!>(! d4!>)! B4) |!p! (G4 d4 |!p!!<(! e4 c4 | B4!<)! c4 |!mp! g) z!mp!!>(! (g2 ^f2!>)! =f2) | %16
!p!!<(! (ec'gc') (ec'g!<)!c') |!mp!!>(! (dbgb) (dbg!>)!b) |!p!!<(! (caea) (cae!<)!a) | %19
!mp!!>(! (Bgeg) (Bge!>)!g) |!p!!<(! (Afcf) (Afc!<)!f) |!mp!!>(! (Gece) (Gec!>)!e) | %22
!p! (FdAd) (DBGB) |!p! (EcGc) (EcGc) | (EBGB) (FBGB) | (EcGc)!<(! (EcG!<)!c) | (FBGB) (FBGB) | %27
!mf!!<(! (EcGc) (EcGc) | (Gece) (cge!<)!g) |!f!!<(! (ge'c'e')!8va(! (c'g'e'!<)!g') | %30
!ff! [e'g'c'']4!8va)! z4 |] %31
V:2
!pp! (C4 E4 | G4 G,4) | (A,4 C4 | E4 E,4) | (F,4 A,4 | C4 C,4) | (F,4 G,4 | (C,4 C,2)) z2 | %8
!pp! (G,DB,D) (G,DB,D) | (G,DCE) (G,ECE) | (G,DB,D) (G,DB,D) | (G,DB,D) (G,DB,D) | %12
 (G,DB,D) (G,DB,D) | (G,DCE) (G,ECE) | (G,DB,D) (G,DB,D) | [G,B,]4 z4 | (C4 E4 | G4 G,4) | %18
 (A,4 C4 | E4 E,4) | (F,4 A,4 | C4 C,4) | F,4 G,4 | (C,G,E,G,) (C,G,E,G,) | (C,G,F,G,) (C,G,F,G,) | %25
 (C,G,E,G,) (C,G,E,G,) | (C,G,F,G,) (C,G,F,G,) | (C,G,E,G,) (C,G,E,G,) | (C,G,E,G,) (C,G,E,G,) | %29
 (C,G,E,G,) (C,G,E,G,) | [C,E,G,]4 z4 |] %31

